public/library/layerzero-text-dark.svg

<svg width="912" height="241" viewBox="0 0 912 241" fill="none" xmlns="http://www.w3.org/2000/svg">
<path d="M109.911 139.756C126.312 130.249 137.337 112.497 137.337 92.1629V68.8371C137.337 31.0998 106.752 0.5 69.0149 0.5C31.2776 0.5 0.677734 31.0998 0.677734 68.8371V93.8333H42.333V95.4582C37.2761 96.7187 32.4925 98.6777 28.1037 101.244C11.7028 110.751 0.677734 128.503 0.677734 148.837V172.163C0.677734 209.9 31.2624 240.5 68.9997 240.5C106.737 240.5 137.337 209.9 137.337 172.163V147.167H95.6815V145.542C100.738 144.281 105.522 142.322 109.911 139.756ZM82.3482 180.5C82.3482 187.865 76.3801 193.833 69.0149 193.833C61.6496 193.833 55.6815 187.865 55.6815 180.5V60.5C55.6815 53.1348 61.6496 47.1667 69.0149 47.1667C76.3801 47.1667 82.3482 53.1348 82.3482 60.5V180.5Z" fill="#F2F2F2"/>
<path d="M220.924 68.8311H200.678V172.102H260.104V152.632H220.927L220.924 68.8311Z" fill="#F2F2F2"/>
<path d="M324.944 107.051C322.087 103.482 318.431 100.645 314.273 98.7746C310.115 96.9021 305.576 96.0487 301.026 96.281C296.273 96.2431 291.567 97.2317 287.225 99.18C282.883 101.128 279.008 103.989 275.861 107.572C269.103 115.185 265.369 125.031 265.369 135.235C265.369 145.438 269.103 155.285 275.861 162.898C279.009 166.478 282.885 169.338 287.226 171.285C291.568 173.232 296.273 174.22 301.026 174.182C311.298 174.182 319.27 170.592 324.944 163.412V172.119H343.873V98.3539H324.944V107.051ZM319.15 150.207C317.242 152.128 314.961 153.636 312.449 154.638C309.937 155.64 307.249 156.114 304.549 156.033C301.86 156.12 299.179 155.648 296.68 154.645C294.18 153.643 291.913 152.132 290.019 150.208C286.335 146.1 284.295 140.764 284.295 135.232C284.295 129.699 286.335 124.365 290.019 120.255C291.913 118.333 294.18 116.823 296.68 115.821C299.179 114.819 301.858 114.345 304.548 114.431C307.248 114.351 309.936 114.826 312.446 115.828C314.956 116.831 317.237 118.337 319.147 120.257C322.874 124.345 324.941 129.687 324.941 135.233C324.941 140.779 322.874 146.122 319.147 150.21L319.15 150.207Z" fill="#F2F2F2"/>
<path d="M392.643 147.926L373.506 98.3467H352.816L382.888 169.754C381.629 174.016 379.154 177.812 375.77 180.672C372.215 183.097 367.948 184.242 363.662 183.92V201.627C372.018 202.404 380.37 200.122 387.185 195.203C393.48 190.426 398.539 182.772 402.356 172.24L429.105 98.3543H408.854L392.643 147.929V147.926Z" fill="#F2F2F2"/>
<path d="M470.068 96.2675C464.908 96.0853 459.768 96.9813 454.966 98.8993C450.168 100.817 445.819 103.715 442.193 107.41C435.186 114.98 431.306 124.943 431.33 135.283C431.359 145.624 435.292 155.567 442.335 163.101C449.673 170.476 459.406 174.164 471.537 174.166C485.619 174.166 496.281 168.905 503.525 158.383L488.263 149.528C486.323 152.003 483.815 153.968 480.949 155.253C478.088 156.538 474.958 157.104 471.827 156.904C460.575 156.904 453.679 152.281 451.139 143.039H506.458C506.929 140.457 507.175 137.839 507.19 135.215C507.468 124.94 503.699 114.971 496.701 107.479C493.309 103.812 489.18 100.916 484.588 98.9813C479.995 97.0481 475.045 96.1233 470.068 96.2675ZM450.849 128.283C451.684 123.949 454.024 120.053 457.446 117.288C461.089 114.582 465.541 113.203 470.064 113.379C474.202 113.324 478.244 114.62 481.588 117.069C485.14 119.823 487.526 123.827 488.264 128.278L450.849 128.283Z" fill="#F2F2F2"/>
<path d="M539.328 111.019V98.3284H520.4V172.095H539.328V136.836C539.328 129.754 541.603 124.688 546.151 121.637C550.707 118.588 556.215 117.328 561.634 118.098V96.8584C556.877 96.7976 552.188 98.0201 548.059 100.4C543.983 102.778 540.883 106.546 539.328 111.019Z" fill="#F2F2F2"/>
<path d="M653.919 84.8037V68.8325H586.592V88.3086H628.267L585.508 155.841V172.102H654.738V152.632H611.155L653.919 84.8037Z" fill="#F2F2F2"/>
<path d="M699.423 96.2675C694.263 96.0853 689.118 96.9813 684.32 98.8993C679.52 100.817 675.169 103.715 671.543 107.41C664.536 114.98 660.656 124.945 660.682 135.285C660.711 145.625 664.644 155.569 671.692 163.101C679.03 170.476 688.762 174.164 700.888 174.166C714.97 174.166 725.632 168.905 732.876 158.383L717.614 149.528C715.675 152.003 713.166 153.968 710.305 155.253C707.441 156.538 704.314 157.104 701.183 156.904C689.932 156.904 683.036 152.281 680.495 143.039H735.815C736.285 140.457 736.531 137.839 736.547 135.215C736.825 124.94 733.055 114.971 726.058 107.479C722.665 103.812 718.536 100.916 713.944 98.9813C709.351 97.0481 704.399 96.1233 699.423 96.2675ZM680.2 128.283C681.039 123.947 683.38 120.052 686.806 117.288C690.449 114.58 694.897 113.201 699.424 113.379C703.563 113.323 707.602 114.618 710.944 117.069C714.501 119.821 716.882 123.827 717.616 128.278L680.2 128.283Z" fill="#F2F2F2"/>
<path d="M768.678 111.019V98.3284H749.75V172.095H768.678V136.836C768.678 129.754 770.953 124.688 775.501 121.637C780.057 118.588 785.565 117.328 790.983 118.098V96.8584C786.224 96.7976 781.537 98.0216 777.408 100.4C773.332 102.778 770.234 106.546 768.679 111.019H768.678Z" fill="#F2F2F2"/>
<path d="M834.139 96.2536C825.259 96.3523 816.685 99.5383 809.874 105.271C803.064 111.004 798.436 118.929 796.777 127.704C795.12 136.477 796.531 145.557 800.78 153.402C805.025 161.245 811.839 167.371 820.065 170.738C828.291 174.105 837.421 174.504 845.91 171.871C854.398 169.236 861.716 163.73 866.622 156.285C871.529 148.841 873.723 139.921 872.83 131.036C871.939 122.15 868.013 113.85 861.723 107.543C858.142 103.862 853.84 100.96 849.098 99.019C844.351 97.0767 839.259 96.1351 834.139 96.2536ZM848.373 149.809C846.514 151.693 844.293 153.174 841.845 154.162C839.397 155.151 836.774 155.625 834.138 155.555C831.511 155.631 828.896 155.159 826.457 154.17C824.021 153.181 821.811 151.696 819.974 149.809C816.34 145.821 814.322 140.609 814.322 135.201C814.322 129.793 816.34 124.583 819.974 120.595C821.811 118.708 824.021 117.224 826.457 116.234C828.896 115.245 831.511 114.773 834.138 114.847C836.774 114.778 839.397 115.253 841.845 116.24C844.293 117.229 846.514 118.709 848.373 120.594C852.048 124.557 854.095 129.778 854.095 135.2C854.095 140.621 852.05 145.844 848.373 149.809Z" fill="#F2F2F2"/>
<path d="M911.322 150.517H889.682V172.165H911.322V150.517Z" fill="#F2F2F2"/>
</svg>

<svg xmlns="http://www.w3.org/2000/svg" width="912" height="241" fill="none" viewBox="0 0 912 241"><path fill="#f2f2f2" d="M109.911 139.756c16.401-9.507 27.426-27.259 27.426-47.593V68.837C137.337 31.1 106.752.5 69.015.5S.678 31.1.678 68.837v24.996h41.655v1.625a54 54 0 0 0-14.23 5.786C11.704 110.751.679 128.503.679 148.837v23.326C.678 209.9 31.262 240.5 69 240.5s68.337-30.6 68.337-68.337v-24.996H95.682v-1.625a54.1 54.1 0 0 0 14.229-5.786M82.348 180.5c0 7.365-5.968 13.333-13.333 13.333s-13.333-5.968-13.333-13.333v-120c0-7.365 5.968-13.333 13.333-13.333S82.348 53.135 82.348 60.5zM220.924 68.831h-20.246v103.271h59.426v-19.47h-39.177zM324.944 107.051a28.8 28.8 0 0 0-10.671-8.276 28.7 28.7 0 0 0-13.247-2.494 33.1 33.1 0 0 0-13.801 2.899 33.2 33.2 0 0 0-11.364 8.392 41.67 41.67 0 0 0-10.492 27.663 41.67 41.67 0 0 0 10.492 27.663 33.3 33.3 0 0 0 11.365 8.387 33.1 33.1 0 0 0 13.8 2.897q15.407 0 23.918-10.77v8.707h18.929V98.354h-18.929zm-5.794 43.156a19.8 19.8 0 0 1-6.701 4.431 19.7 19.7 0 0 1-7.9 1.395 19.4 19.4 0 0 1-7.869-1.388 19.6 19.6 0 0 1-6.661-4.437 22.43 22.43 0 0 1-5.724-14.976c0-5.533 2.04-10.867 5.724-14.977a19.6 19.6 0 0 1 6.661-4.434 19.5 19.5 0 0 1 7.868-1.39c2.7-.08 5.388.395 7.898 1.397a19.8 19.8 0 0 1 6.701 4.429 22.23 22.23 0 0 1 5.794 14.976 22.23 22.23 0 0 1-5.794 14.977zM392.643 147.926l-19.137-49.58h-20.69l30.072 71.408a22.7 22.7 0 0 1-7.118 10.918 18.96 18.96 0 0 1-12.108 3.248v17.707a34.7 34.7 0 0 0 23.523-6.424q9.444-7.165 15.171-22.963l26.749-73.886h-20.251l-16.211 49.575zM470.068 96.268c-5.16-.183-10.3.713-15.102 2.631a37.3 37.3 0 0 0-12.773 8.511 40.9 40.9 0 0 0-10.863 27.873 40.9 40.9 0 0 0 11.005 27.818q11.006 11.062 29.202 11.065 21.123 0 31.988-15.783l-15.262-8.855a19.35 19.35 0 0 1-7.314 5.725 19.26 19.26 0 0 1-9.122 1.651q-16.878-.001-20.688-13.865h55.319c.471-2.582.717-5.2.732-7.824a39.09 39.09 0 0 0-10.489-27.736 35 35 0 0 0-12.113-8.498 34.8 34.8 0 0 0-14.52-2.713m-19.219 32.015a18.68 18.68 0 0 1 6.597-10.995 19.87 19.87 0 0 1 12.618-3.909 19.07 19.07 0 0 1 11.524 3.69 17.88 17.88 0 0 1 6.676 11.209zM539.328 111.019v-12.69H520.4v73.766h18.928v-35.259q0-10.623 6.823-15.199a22.2 22.2 0 0 1 15.483-3.539v-21.24a26.5 26.5 0 0 0-13.575 3.542 19.83 19.83 0 0 0-8.731 10.619M653.919 84.804V68.832h-67.327V88.31h41.675l-42.759 67.532v16.261h69.23v-19.47h-43.583zM699.423 96.268a37.2 37.2 0 0 0-15.103 2.631 37.3 37.3 0 0 0-12.777 8.511 40.89 40.89 0 0 0-10.861 27.875 40.88 40.88 0 0 0 11.01 27.816q11.007 11.062 29.196 11.065 21.123 0 31.988-15.783l-15.262-8.855a19.4 19.4 0 0 1-7.309 5.725 19.3 19.3 0 0 1-9.122 1.651q-16.876-.001-20.688-13.865h55.32c.47-2.582.716-5.2.732-7.824a39.1 39.1 0 0 0-10.489-27.736 35 35 0 0 0-12.114-8.498 34.8 34.8 0 0 0-14.521-2.713M680.2 128.283a18.7 18.7 0 0 1 6.606-10.995 19.84 19.84 0 0 1 12.618-3.909 19.04 19.04 0 0 1 11.52 3.69 17.83 17.83 0 0 1 6.672 11.209zM768.678 111.019v-12.69H749.75v73.766h18.928v-35.259q0-10.623 6.823-15.199a22.2 22.2 0 0 1 15.482-3.539v-21.24a26.5 26.5 0 0 0-13.575 3.542 19.83 19.83 0 0 0-8.729 10.619zM834.139 96.254a38.34 38.34 0 0 0-24.265 9.017 38.72 38.72 0 0 0-13.097 22.433 38.84 38.84 0 0 0 4.003 25.698 38.54 38.54 0 0 0 19.285 17.336 38.27 38.27 0 0 0 25.845 1.133 38.47 38.47 0 0 0 20.712-15.586 38.83 38.83 0 0 0 6.208-25.249 38.74 38.74 0 0 0-11.107-23.493 37.4 37.4 0 0 0-12.625-8.524 37.2 37.2 0 0 0-14.959-2.765m14.234 53.555a19.3 19.3 0 0 1-6.528 4.353 19.2 19.2 0 0 1-7.707 1.393 19 19 0 0 1-7.681-1.385 19.1 19.1 0 0 1-6.483-4.361 21.7 21.7 0 0 1-5.652-14.608 21.7 21.7 0 0 1 5.652-14.606 19.014 19.014 0 0 1 14.164-5.748 19.3 19.3 0 0 1 7.707 1.393 19.3 19.3 0 0 1 6.528 4.354 21.49 21.49 0 0 1 5.722 14.606 21.5 21.5 0 0 1-5.722 14.609M911.322 150.517h-21.64v21.648h21.64z"/></svg>
